polaris-icons/icons/newicons/InactiveLocationMajor.svg

<svg width="20" height="20" viewBox="0 0 20 20" fill="none" xmlns="http://www.w3.org/2000/svg">
<path d="M13.8391 3.38881C12.7987 2.52167 11.4603 2 10 2C6.68629 2 4 4.68629 4 8C4 9.59897 4.35509 11.0559 4.89496 12.3329L6.05363 11.1743C5.71121 10.2063 5.5 9.14162 5.5 8C5.5 5.51472 7.51471 3.5 10 3.5C11.0459 3.5 12.0084 3.85681 12.7726 4.45534L13.8391 3.38881Z" fill="black"/>
<path fill-rule="evenodd" clip-rule="evenodd" d="M15.7636 3.58562C15.7618 3.58741 15.76 3.58921 15.7582 3.59099L4.09097 15.2583C4.08921 15.26 4.08743 15.2618 4.08565 15.2635C3.7981 15.5568 3.79987 16.0277 4.09098 16.3188C4.38387 16.6117 4.85874 16.6117 5.15164 16.3188L6.44923 15.0212C7.86977 16.9126 9.4786 18 10 18C11 18 16 14 16 8C16 7.24702 15.8613 6.52643 15.608 5.8624L16.8189 4.65154C17.1118 4.35864 17.1118 3.88377 16.8189 3.59088C16.5278 3.29975 16.0568 3.29799 15.7636 3.58562ZM14.5 8C14.5 10.5743 13.426 12.7572 12.1955 14.3233C11.5822 15.1038 10.9517 15.7024 10.4448 16.0923C10.2705 16.2264 10.1206 16.3283 10 16.4018C9.8794 16.3283 9.72948 16.2264 9.55519 16.0923C9.04827 15.7024 8.41777 15.1038 7.80447 14.3233C7.7092 14.202 7.61487 14.0771 7.52191 13.9485L14.4032 7.06724C14.4666 7.36817 14.5 7.68019 14.5 8ZM9.74335 16.5358C9.74335 16.5358 9.74846 16.5335 9.75805 16.5306C9.74803 16.5346 9.74335 16.5358 9.74335 16.5358ZM10.2419 16.5306C10.2515 16.5335 10.2566 16.5358 10.2566 16.5358C10.2566 16.5358 10.252 16.5346 10.2419 16.5306Z" fill="black"/>
<path d="M11.4875 5.74045C11.0718 5.43228 10.5572 5.25 10 5.25C8.61929 5.25 7.5 6.36929 7.5 7.75C7.5 8.30718 7.68228 8.82179 7.99045 9.23745L9.0816 8.1463C9.0291 8.02479 9 7.89079 9 7.75C9 7.19772 9.44772 6.75 10 6.75C10.1408 6.75 10.2748 6.7791 10.3963 6.8316L11.4875 5.74045Z" fill="black"/>
</svg>

<svg viewBox="0 0 20 20" fill="none" xmlns="http://www.w3.org/2000/svg"><path d="M13.84 3.389a6 6 0 0 0-9.84 4.611c0 1.599.355 3.056.895 4.333l1.159-1.159a9.489 9.489 0 0 1-.554-3.174 4.5 4.5 0 0 1 7.273-3.545l1.066-1.066Z" fill="#5C5F62"/><path fill-rule="evenodd" clip-rule="evenodd" d="m15.764 3.586-.006.005-11.667 11.667-.005.006a.75.75 0 0 0 1.066 1.055l1.297-1.298c1.42 1.892 3.03 2.979 3.551 2.979 1 0 6-4 6-10 0-.753-.139-1.474-.392-2.138l1.21-1.21a.75.75 0 0 0-1.054-1.066Zm-1.264 4.414c0 2.574-1.074 4.757-2.305 6.323a10.29 10.29 0 0 1-1.75 1.77 5.075 5.075 0 0 1-.445.309 5.073 5.073 0 0 1-.445-.31 10.29 10.29 0 0 1-1.75-1.769c-.096-.121-.19-.246-.283-.375l6.881-6.88c.064.3.097.612.097.932Zm-4.757 8.536s.005-.003.015-.005l-.015.005Zm.499-.005.015.005-.015-.005Z" fill="#5C5F62"/><path d="M11.488 5.74a2.5 2.5 0 0 0-3.497 3.497l1.09-1.09a1 1 0 0 1 1.315-1.315l1.091-1.092Z" fill="#5C5F62"/></svg>
